!!!!SEGMENT: T124_Jan-w15p21m1-14.krn
!!!COM: Janáček, Leoš [Leo Eugen]
!!!OTL: No. 21: Tíha (Quiet)
!!!AGN: Vocal
!!!AGN-sub: Solo
!!!CNT: Czech
!!!ODT: 1901
!!!OPR: Moravská lidová poesie v písních (Moravian Folk Poetry in Songs) for Voice and Piano
!!!filename: T124_Jan-w15p21m1-14.krn
**kern	**kern	**dynam	**kern	**text	**text	**text
*grp:A	*grp:A	*	*grp:B	*	*	*
*part2	*part2	*	*part1	*	*	*
*staff3	*staff2	*staff2/3	*staff1	*	*	*
*Ipiano	*Ipiano	*	*Ivox	*	*	*
*I"Piano	*I"Piano	*	*I"Voice	*	*	*
*clefF4	*clefG2	*	*clefG2	*	*	*
*k[f#c#]	*k[f#c#]	*	*k[f#c#]	*	*	*
*D:	*D:	*	*D:	*	*	*
*M2/4	*M2/4	*	*M2/4	*	*	*
=1	=1	=1	=1	=1	=1	=1
*ped	*	*	*	*	*	*
!!LO:TX:a:B:t=Andante [quarter]
16BB	8r	pp	2r	.	.	.
16r	.	.	.	.	.	.
(4F# 4B 4d	(16.bLL	.	.	.	.	.
.	32cc#JJk	.	.	.	.	.
.	16ddLL	.	.	.	.	.
.	16ff#	.	.	.	.	.
16F# 16B 16d	16cc#	.	.	.	.	.
16r	16bJJ	.	.	.	.	.
=2	=2	=2	=2	=2	=2	=2
8r	4.f#	.	2r	.	.	.
4B 4d	.	.	.	.	.	.
16B 16d)	16f#)	.	.	.	.	.
16r	16r	.	.	.	.	.
=3!|:	=3!|:	=3!|:	=3!|:	=3!|:	=3!|:	=3!|:
*	*	*	*	*	*italic	*italic
8r	[4.f#	.	6dd	Těž-	1.Mir	2.Seid'-
4B 4d	.	.	.	.	.	.
.	.	.	3cc#	-ko	ist	-ne
16B 16d	16f#^]	.	.	.	.	.
16r	16r	.	.	.	.	.
=4	=4	=4	=4	=4	=4	=4
8r	[4.f#	.	6b	je	ban-	Schnü-
4B 4d	.	.	.	.	.	.
.	.	.	3a	mi,	-ge,	-re
16B 16d	16f#]	.	.	.	.	.
16r	16r	.	.	.	.	.
=5	=5	=5	=5	=5	=5	=5
8r	[4.f#	.	3dd	těž-	ban-	könn-
4B 4d	.	.	.	.	.	.
.	.	.	6ee	-ko	-ge,	-te
16B 16d	16f#]	.	.	.	.	.
16r	16r	.	.	.	.	.
=6	=6	=6	=6	=6	=6	=6
*	*^	*	*	*	*	*
8r	8r	4.f#	sf	6ff#	na	fühl'	ich
4F# 4B 4d	16.bLL	.	.	.	.	.	.
.	.	.	.	(3dd	mo-	im	noch
.	32cc#JJk	.	.	.	.	.	.
.	16ddLL	.	.	.	.	.	.
.	16ff#	.	.	.	.	.	.
*^	*	*	*	*	*	*	*
[8B	16F# 16B 16d	16cc#	16f#	.	.	.	.	.
.	16r	16bJJ	16r	.	.	.	.	.
*	*	*v	*v	*	*	*	*	*
.	.	.	.	8qcc#/)	.	.	.
=7	=7	=7	=7	=7	=7	=7	=7
16B/]	8rBB	16f#	.	6b	-jim	Her-	e-
16r	.	16r	.	.	.	.	.
*	*	*	*	*	*	*	*
4AA 4G	4r.yy	4c# 4f# 4a	.	.	.	.	.
.	.	.	.	3cc#	sr-	-zen	-her
16AA 16G	.	16c# 16f# 16a	.	.	.	.	.
16r	.	16r	.	.	.	.	.
=8	=8	=8	=8	=8	=8	=8	=8
*	*	*	*	*	*	*	*
8r	16DD\	8r	.	3a	-deč-	Schwe-	tren-
.	16rDD	.	.	.	.	.	.
4F# 4A	4D	4d 4f# 4a	>	.	.	.	.
.	.	.	.	.	.	.	.
.	.	.	.	6a	-ku,	-re,	-nen,
16F# 16A	16D	16d 16f# 16a	]	.	.	.	.
16r	16ryy	16r	.	.	.	.	.
*v	*v	*	*	*	*	*	*
=9	=9	=9	=9	=9	=9	=9
*ped	*	*	*	*	*	*
16GG	(8g	mf	6g	jak	als	dich,
16r	.	.	.	.	.	.
4G 4B	4.f#	.	.	.	.	.
.	.	.	3f#	by	ob	mein
16G 16B	.	.	.	.	.	.
16r	.	.	.	.	.	.
.	32qqb/LLL	.	.	.	.	.
.	32qqg/	.	.	.	.	.
.	32qqf#/JJJ)	.	.	.	.	.
=10	=10	=10	=10	=10	=10	=10
.	16qqe/LL	.	.	.	.	.
.	16qqf#/JJ	.	.	.	.	.
8r	8e	.	6e	mi	es	Lieb-
4G 4B	4.d	.	.	.	.	.
.	.	.	3d	ho	be-	-ster,
16G 16B	.	.	.	.	.	.
16r	.	.	.	.	.	.
.	8qB/	.	.	.	.	.
=11	=11	=11	=11	=11	=11	=11
8r	4.g	.	3g	zva-	-engt	werd'
4G 4B	.	.	.	.	.	.
.	.	.	6f#	-zał	von	ich
16G 16B	8a	.	.	.	.	.
16r	.	.	.	.	.	.
=12	=12	=12	=12	=12	=12	=12
*	*^	*	*	*	*	*
16E	8r	4.b	.	(6b	hed-	seid'-	nie
16r	.	.	.	.	.	.	.
*ped	*	*	*	*	*	*	*
4B 4e 4g	16.eeLL	.	.	.	.	.	.
.	.	.	.	3g	-bav-	-nen	ver-
.	32ff#JJk	.	.	.	.	.	.
.	16ggLL	.	.	.	.	.	.
.	16bb	.	.	.	.	.	.
*^	*	*	*	*	*	*	*
[8e	16B 16e 16g\	16ff#	16b	.	.	.	.	.
.	16r	16eeJJ	16r	.	.	.	.	.
*	*	*v	*v	*	*	*	*	*
.	.	.	.	8qf#/)	.	.	.
=13	=13	=13	=13	=13	=13	=13	=13
*ped	*	*	*	*	*	*	*
16e]	8rGG	16b	.	6e	-nu	Schnü-	-ges-
16rc	.	16r	.	.	.	.	.
4.ryy	4AA	4G 4c# 4f#	.	.	.	.	.
.	.	.	.	3f#	šňu-	-ren	-sen
.	16AAA	16G 16c# 16f#	.	.	.	.	.
.	16r	16r	.	.	.	.	.
*v	*v	*	*	*	*	*	*
=14	=14	=14	=14	=14	=14	=14
*ped	*	*	*	*	*	*
16BBB	8r	.	3d	-reč-	wä-	kön-
16r	.	.	.	.	.	.
4BB	4F# 4B 4d 4f#	.	.	.	.	.
.	.	.	6d	-ku.	-re.	-nen.
16BB	16F# 16B 16d 16f#	.	.	.	.	.
16r	16r	.	.	.	.	.
=:|!	=:|!	=:|!	=:|!	=:|!	=:|!	=:|!
*-	*-	*-	*-	*-	*-	*-
!!!system-decoration: s1[({(s2,s3)})]
!!!EED:Jason Lee
!!!EEV:2021/11/19
!!!EED2: Gabriella Vici
!!!Suter_Work_ID: Jan-15
!!!Suter_Example_Number: 124
!!!Suter_Example_ID: Jan-15/21/1-14
!!!Premiere_Location: unknown
!!!Other_Tsigs: none
!!!Full_Unit_Duration: 0:54
!!!First_Publication_Year: 1908
!!!First_Public_Performance_Year: unknown
!!!Example_Total_Measures: 14
!!!Example_Timestamp_Duration: 23
!!!Example_Start_Tsig_Type: simple duple
!!!Example_Start_Tsig_Mean_Beat_Rate: 73
!!!Example_Start_Tsig_Beat_Rate: 73
!!!Example_Start_Tsig_Beat: quarter
!!!Example_Start_Tsig: 2/4
!!!Example_Start_Timestamp: 0:00
!!!Example_Start_Tempo_Expression: Andante
!!!Example_Start_Notated_Beat_Rate: {73}
!!!Example_Start_Notated_Beat: {quarter}
!!!Example_Start_Measure: 1
!!!Example_Metadata_Validated: Y
!!!Example_End_Timestamp: 0:23
!!!Example_End_Measure: 14
!!!Example_Dataset: T
!!!Editorial_Comments: No notated tempo. Example Start Notated Beat and Example Start Notated Beat Rate {quarter=73} calculated from recording (https://ubc-naxosmusiclibrary-com.eu1.proxy.openathens.net/catalogue/item.asp?cid=SU4183-2); tempo for audio synthesis {quarter=70} was calculated using a Digital Audio Workstation (DAW).
!!!Death_Place: Moravaská Ostrava,Czech Republic
!!!Death_Date: 12-Aug-1928
!!!Changing_Tsig: no
!!!Birth_Place: Hukvaldy,Moravia
!!!Birth_Date: 3-Jul-1854
!!!Audio_Example_Quarter_Note_Tempo: 72
!!!Audio_Example_Duration: 23.242
!!!EEV2: 2022/04/01
